X: 1
T: J.B. Milne
R: reel, polka
C: Angus Fitchet
Z: John Chambers <jc:trillian.mit.edu>
N: 8x32R3
M: C|
L: 1/8
K: A
cd \
| "A"efed c2A2 | E2A2 c4 | cedc B2A2 | "Bm"d6 Bc \
| "E7"dedc B2G2 | E2G2 B4 | BdcB A2B2 | "A"c6 ||
cd \
| "A"efed c2A2 | E2A2 c4 | cedc B2A2 | "D"f6 fg \
| "Cdim7"af^d=c A2ag | "A"fecA E2gf | "E7"~e2^de f2g2 | "A"a6 |]
cd \
| "A"e2c2 f2c2 | e2c2 f2c2 | ~e2^de "F#m"fe=dc | "Bm"d6 Bc \
| "E7"d2B2 e2B2 | d2B2 e2B2 | ~d2cd edcB | "A7"c6 ||
cd \
| "A"e2c2 f2c2 | e2c2 f2c2 | ~a2ga baga | "D"f6 fg \
| "Cdim7"abag fagf | "A"fecA E2gf | "E7"~e2^de f2g2 | "A"a6 |]
